packages/core/src/svgs/tokens/branded/KP3R.svg

<svg width="24" height="24" viewBox="0 0 24 24" fill="none" xmlns="http://www.w3.org/2000/svg">
<path fill-rule="evenodd" clip-rule="evenodd" d="M7.00001 6.8C7.00001 4.14874 9.16382 2 11.8332 2H12.1668C14.8356 2 17.0001 4.14874 17.0001 6.8V10.7556C18.0482 10.8319 18.875 11.7132 18.875 12.7894V19.9607C18.875 21.0869 17.9688 22 16.8519 22H7.14814C6.03126 22 5.125 21.0869 5.125 19.9607V12.7894C5.125 11.7132 5.95188 10.8319 7.00001 10.7556V6.8ZM8.25002 10.7501H15.75V6.71064C15.75 4.80001 14.0713 3.25 12 3.25C9.92872 3.25 8.25002 4.80001 8.25002 6.71064V10.7501ZM7.04251 12C6.67376 12 6.37501 12.2981 6.37501 12.6663V20.0845C6.37501 20.452 6.67376 20.7501 7.04251 20.7501H16.9575C17.3263 20.7501 17.6251 20.452 17.6251 20.0837V12.6663C17.6251 12.2981 17.3263 12 16.9575 12H7.04251ZM12 13.875C11.8343 13.875 11.6752 13.9409 11.5581 14.058C11.4409 14.1753 11.375 14.3342 11.375 14.5001V15.75C11.375 15.8038 11.3812 15.8563 11.3944 15.9063C11.152 16.0405 10.9611 16.2515 10.8517 16.506C10.7422 16.7606 10.7205 17.0443 10.7897 17.3126C10.8591 17.5808 11.0156 17.8184 11.2347 17.9881C11.4537 18.1577 11.7229 18.2497 12 18.2497C12.2771 18.2497 12.5463 18.1577 12.7653 17.9881C12.9845 17.8184 13.141 17.5808 13.2103 17.3126C13.2795 17.0443 13.2578 16.7606 13.1484 16.506C13.0389 16.2515 12.848 16.0405 12.6056 15.9063C12.6182 15.8563 12.625 15.8038 12.625 15.75V14.5001C12.625 14.3342 12.5591 14.1753 12.442 14.058C12.3248 13.9409 12.1658 13.875 12 13.875Z" fill="#0277FD"/>
</svg>

<svg xmlns="http://www.w3.org/2000/svg" width="24" height="24" fill="none" viewBox="0 0 24 24">
    <path fill="#0277FD" fill-rule="evenodd" d="M7 6.8C7 4.149 9.164 2 11.833 2h.334C14.836 2 17 4.149 17 6.8v3.956a2.033 2.033 0 0 1 1.875 2.033v7.172A2.03 2.03 0 0 1 16.852 22H7.148a2.03 2.03 0 0 1-2.023-2.04v-7.17c0-1.077.827-1.958 1.875-2.034zm1.25 3.95h7.5V6.71c0-1.91-1.679-3.46-3.75-3.46S8.25 4.8 8.25 6.71zM7.043 12a.667.667 0 0 0-.668.666v7.418c0 .368.299.666.668.666h9.915a.667.667 0 0 0 .667-.666v-7.418a.667.667 0 0 0-.668-.666zM12 13.875a.625.625 0 0 0-.625.625v1.25q0 .081.02.156a1.25 1.25 0 1 0 1.21 0 .6.6 0 0 0 .02-.156V14.5a.626.626 0 0 0-.625-.625" clip-rule="evenodd"/>
</svg>
